X: 39130
T: Sweet Grandmother's Spatula
R: reel
M: 4/4
K: Emajor
|:BcBF ^ABce|dFcF dFBF|EBeE dEBc|dGG/G/G cFF2|
BcBF ^ABce|dFcF dFBF|EBeE dEBc|1 dGG/G/G B4:|2 dGG/G/G B2Bc||
|:d3B c2cB|d2dB cBcd|eEE/E/E dGGB|cBGB cFe2|
d2dB c2cB|d2ef cBb^a|gfed e3d|1 cBGc B2Bc:|2 cBGc B4||

